app/dist/common/images/dragonfly-energy.svg

<svg height="18" viewBox="0 0 18 18" width="18" xmlns="http://www.w3.org/2000/svg"><path d="m0 0h18v18h-18z" fill="#f0f3fa"/><g fill="#54d335"><path d="m5 13.35-.57-.35-.43.74.67.26zm6.35-.35-3.35-9.77.65-.23 3.35 9.77z"/><path d="m6 11.53 5.53-5.53.47.47-5.53 5.53z"/><path d="m5.27 6 10.73 4.23-.27.77-10.73-4.23zm.73 6.54-.5-.54-.5.5.5.5z"/></g></svg>

<!-- by TradingView --><svg width="18" height="18" viewBox="0 0 18 18" xmlns="http://www.w3.org/2000/svg"><path fill="#F0F3FA" d="M0 0h18v18H0z"/><path d="M5 13.35 4.43 13l-.43.74.67.26.33-.65ZM11.35 13 8 3.23 8.65 3 12 12.77l-.65.23Z" fill="#54D335"/><path d="M6 11.53 11.53 6l.47.47L6.47 12 6 11.53Z" fill="#54D335"/><path d="M5.27 6 16 10.23l-.27.77L5 6.77 5.27 6ZM6 12.54 5.5 12l-.5.5.5.5.5-.46Z" fill="#54D335"/></svg>
